img/flamp.svg

<svg width="68" height="22" viewBox="0 0 68 22" fill="none" xmlns="http://www.w3.org/2000/svg">
  <path d="M0 2C0 0.89543 0.895431 0 2 0H66C67.1046 0 68 0.895431 68 2V20C68 21.1046 67.1046 22 66 22H2C0.895432 22 0 21.1046 0 20V2Z" fill="#2E6BE5"/>
  <path d="M11.3706 11.9036C9.92418 11.5107 8.83936 10.3714 8.83936 8.72143C8.83936 6.67857 10.567 5.5 12.4152 5.5H21.2144V7.975H16.0715V9.9H20.0492V12.2964H16.0715V15.7143H13.3394V7.89643H12.3751C11.9331 7.89643 11.4108 8.17143 11.4108 8.72143C11.4108 9.15357 11.692 9.42857 12.0536 9.58571L11.3706 11.9036ZM22.5001 15.7143V5.5H25.3126V15.7143H22.5001ZM30.1742 8.01429C32.2635 8.01429 33.7501 8.99643 33.7501 11.0393V15.7143H31.3795V14.9286C30.9376 15.7143 29.9331 15.95 28.9688 15.95C27.2813 15.95 26.317 14.7714 26.317 13.4357C26.317 12.2964 27.2411 10.9214 29.5313 10.9214H31.1786V10.8036C31.1786 9.93929 30.8572 9.625 30.134 9.625C29.4911 9.625 29.0894 9.93929 29.0492 10.5286H26.6385C26.759 9.075 27.9644 8.01429 30.1742 8.01429ZM31.2188 12.8464V12.4143H30.0536C29.3706 12.4143 28.8483 12.7679 28.8483 13.2786C28.8483 13.8286 29.2501 14.1036 29.9331 14.1036C30.7367 14.1036 31.2188 13.5536 31.2188 12.8464ZM41.9465 9.35C42.4688 8.40714 43.2322 8.05357 44.2367 8.05357C46.1652 8.05357 47.009 9.23214 47.009 11.1179V15.7143H44.3974V11.6286C44.3974 10.7643 44.2367 10.2536 43.4733 10.2536C42.6295 10.2536 42.3885 10.8821 42.3885 11.7071V15.7143H39.7769V11.6286C39.7769 10.7643 39.576 10.2536 38.7724 10.2536C37.9286 10.2536 37.6474 10.9607 37.6474 11.825V15.7536H34.9554V8.25H37.4867V9.35C38.009 8.28929 38.9331 8.01429 39.7769 8.01429C40.7813 8.01429 41.5045 8.40714 41.9465 9.35ZM50.7858 9.27143C51.3081 8.32857 52.2724 8.01429 53.1965 8.01429C55.2054 8.01429 56.4108 9.66429 56.4108 11.9821C56.4108 14.3393 55.1652 15.95 53.1965 15.95C52.2724 15.95 51.3483 15.675 50.8661 14.9286V18.4643H48.2144V8.25H50.7858V9.27143ZM52.2322 13.9071C53.3572 13.9071 53.7992 13.0036 53.7992 11.9821C53.7992 10.9607 53.3974 10.0964 52.2322 10.0964C51.1474 10.0964 50.6652 10.9607 50.6652 11.9821C50.7054 13.0036 51.1474 13.9071 52.2322 13.9071Z" fill="white"/>
</svg>

<svg width="68" height="22" fill="none" xmlns="http://www.w3.org/2000/svg"><path d="M0 2a2 2 0 0 1 2-2h64a2 2 0 0 1 2 2v18a2 2 0 0 1-2 2H2a2 2 0 0 1-2-2V2z" fill="#2E6BE5"/><path d="M11.37 11.904C9.925 11.51 8.84 10.37 8.84 8.72c0-2.042 1.727-3.221 3.575-3.221h8.8v2.475h-5.143V9.9h3.977v2.396h-3.977v3.418h-2.733V7.896h-.964c-.442 0-.964.275-.964.825 0 .433.281.708.643.865l-.683 2.318zm11.13 3.81V5.5h2.813v10.214H22.5zm7.674-7.7c2.09 0 3.576.982 3.576 3.025v4.675h-2.37v-.785c-.442.785-1.447 1.021-2.411 1.021-1.688 0-2.652-1.179-2.652-2.514 0-1.14.924-2.515 3.214-2.515h1.648v-.117c0-.865-.322-1.179-1.045-1.179-.643 0-1.045.314-1.085.904h-2.41c.12-1.454 1.325-2.515 3.535-2.515zm1.045 4.832v-.432h-1.165c-.683 0-1.206.354-1.206.865 0 .55.402.825 1.085.825.804 0 1.286-.55 1.286-1.258zM41.946 9.35c.523-.943 1.286-1.296 2.29-1.296 1.93 0 2.773 1.178 2.773 3.064v4.596h-2.612V11.63c0-.865-.16-1.375-.924-1.375-.843 0-1.084.628-1.084 1.453v4.007h-2.612V11.63c0-.865-.201-1.375-1.005-1.375-.843 0-1.125.707-1.125 1.571v3.929h-2.692V8.25h2.532v1.1c.522-1.06 1.446-1.336 2.29-1.336 1.004 0 1.727.393 2.17 1.336zm8.84-.079c.522-.942 1.486-1.257 2.41-1.257 2.01 0 3.215 1.65 3.215 3.968 0 2.357-1.246 3.968-3.215 3.968-.924 0-1.848-.275-2.33-1.021v3.535h-2.652V8.25h2.572v1.021zm1.446 4.636c1.125 0 1.567-.903 1.567-1.925 0-1.021-.402-1.886-1.567-1.886-1.085 0-1.567.865-1.567 1.886.04 1.022.482 1.925 1.567 1.925z" fill="#fff"/></svg>
